X: 1291
M: 3/8
L: 1/16
K: C
V: 1
|:\
!p!(e<c)(e<c)(g<e) | .c2.c2.c2 | (d<B)(d<B)(f<d) | .B2.B2.B2 |\
(d<c)(e<c)(g<e) | (e<g)(e<g)(a>f) | (e<c)(g<c)(f<d) | c6 :|
|:\
(Bd)(Bd)(Bd) | (ce)(ce)(df) | (eg)(eg)(ce) | d4e2 |\
(Bd)(Bd)(Bd) | (ce)(df)(eg) | (fa)(df)(Bd) |[1 c6 :|[2 c4g2 |]
|:\
g4g2 | g4g2 | g4g2 | g4f2 |\
ececfd | gegeaf | ecgefd | c6 H:|
V: 2
|:\
z6 | E2G2c2 | z6 | D2G2B2 |\
.c2.c2.c2 | .e2.e2.f2 | g2G2B2 | c6 :|
|:\
|:\
z2z2.e2 | .d2.B2z2 | z2z2a2 | .g2.e2z2 |\
z2z2e2 | .d2.B2z2 | z2z2a2 | g2.e2z2 |
z2cez2 | z2dfz2 | z2cez2 | z2Bdz2 |\
c2c2d2 | e2e2f2 | g2G2B2 | c6 H:|

